SVG_Azure_Grouped/Dynamics 365/Application Product Insights.svg

<?xml version="1.0" encoding="UTF-8" standalone="no"?>
<!-- Generated by Microsoft Visio, SVG Export Application Product Insights.svg Page-1 -->

<svg
   xmlns:dc="http://purl.org/dc/elements/1.1/"
   xmlns:cc="http://creativecommons.org/ns#"
   xmlns:rdf="http://www.w3.org/1999/02/22-rdf-syntax-ns#"
   xmlns:svg="http://www.w3.org/2000/svg"
   xmlns="http://www.w3.org/2000/svg"
   xmlns:sodipodi="http://sodipodi.sourceforge.net/DTD/sodipodi-0.dtd"
   xmlns:inkscape="http://www.inkscape.org/namespaces/inkscape"
   width="0.77618438in"
   height="0.70575684in"
   viewBox="0 0 55.885274 50.814412"
   xml:space="preserve"
   class="st6"
   version="1.1"
   id="svg68"
   sodipodi:docname="Application Product Insights.svg"
   style="font-size:12px;overflow:visible;color-interpolation-filters:sRGB;fill:none;fill-rule:evenodd;stroke-linecap:square;stroke-miterlimit:3"
   inkscape:version="0.92.5 (2060ec1f9f, 2020-04-08)"><metadata
   id="metadata72"><rdf:RDF><cc:Work
       rdf:about=""><dc:format>image/svg+xml</dc:format><dc:type
         rdf:resource="http://purl.org/dc/dcmitype/StillImage" /></cc:Work></rdf:RDF></metadata><sodipodi:namedview
   pagecolor="#ffffff"
   bordercolor="#666666"
   borderopacity="1"
   objecttolerance="10"
   gridtolerance="10"
   guidetolerance="10"
   inkscape:pageopacity="0"
   inkscape:pageshadow="2"
   inkscape:window-width="640"
   inkscape:window-height="480"
   id="namedview70"
   showgrid="false"
   inkscape:zoom="1.963572"
   inkscape:cx="36.713377"
   inkscape:cy="14.737934"
   inkscape:window-x="0"
   inkscape:window-y="0"
   inkscape:window-maximized="0"
   inkscape:current-layer="svg68" />
	<style
   type="text/css"
   id="style2">
	<![CDATA[
		.st1 {fill:url(#grad0-7);stroke:none;stroke-linecap:butt;stroke-width:0.75}
		.st2 {fill:#000000;fill-opacity:0.32;stroke:none;stroke-linecap:butt;stroke-width:0.75}
		.st3 {fill:#000000;fill-opacity:0.24;stroke:none;stroke-linecap:butt;stroke-width:0.75}
		.st4 {fill:url(#grad0-15);stroke:none;stroke-linecap:butt;stroke-width:0.75}
		.st5 {fill:url(#grad0-23);stroke:none;stroke-linecap:butt;stroke-width:0.75}
		.st6 {fill:none;fill-rule:evenodd;font-size:12px;overflow:visible;stroke-linecap:square;stroke-miterlimit:3}
	]]>
	</style>

	<defs
   id="Patterns_And_Gradients">
		<linearGradient
   id="grad0-7"
   x1="0.94931046"
   y1="38.358453"
   x2="47.477151"
   y2="38.358453"
   gradientTransform="scale(0.94171615,1.0618911)"
   gradientUnits="userSpaceOnUse">
			<stop
   offset="0"
   stop-color="#0078d4"
   stop-opacity="1"
   id="stop4" />
			<stop
   offset="1"
   stop-color="#2064ae"
   stop-opacity="1"
   id="stop6" />
		</linearGradient>
		<linearGradient
   id="grad0-15"
   x1="0.93694818"
   y1="44.778544"
   x2="43.686063"
   y2="44.778544"
   gradientTransform="scale(0.97101907,1.0298459)"
   gradientUnits="userSpaceOnUse">
			<stop
   offset="0"
   stop-color="#40c4f5"
   stop-opacity="1"
   id="stop9" />
			<stop
   offset="1"
   stop-color="#0095e6"
   stop-opacity="1"
   id="stop11" />
		</linearGradient>
		<linearGradient
   id="grad0-23"
   x1="0.93622232"
   y1="44.654787"
   x2="34.406187"
   y2="44.654787"
   gradientTransform="scale(0.86670459,1.1537957)"
   gradientUnits="userSpaceOnUse">
			<stop
   offset="0"
   stop-color="#a7f2ff"
   stop-opacity="1"
   id="stop14" />
			<stop
   offset="1"
   stop-color="#7cecff"
   stop-opacity="1"
   id="stop16" />
		</linearGradient>
	</defs>
	<g
   id="g66"
   transform="translate(-6.4807182,-5.3098795)">
		<title
   id="title20">Page-1</title>
		<g
   id="group21274-1"
   transform="translate(5.66929,-34.0157)">
			<title
   id="title22">Application Product Insights.21274</title>
			<g
   id="group21275-2">
				<title
   id="title24">Sheet.21275</title>
				<g
   id="group21276-3">
					<title
   id="title26">Sheet.21276</title>
					<g
   id="shape21277-4"
   transform="translate(11.9867,-1.40699)">
						<title
   id="title28">Sheet.21277</title>
						<path
   d="m 34.01,41.34 c -0.89,-0.81 -2.25,-0.81 -3.14,0 l -8.78,8.03 c -1.22,1.12 -1.92,2.72 -1.92,4.39 v 2.1 0 2.07 1.76 c 0,9.36 -4.86,18.02 -12.79,22.83 L 2.04,85.75 C 0,86.98 0.86,90.14 3.23,90.14 h 15.19 c 14.52,0 26.29,-11.91 26.29,-26.59 v -8.86 -0.93 c 0,-1.67 -0.7,-3.27 -1.93,-4.39 z"
   class="st1"
   id="path30"
   inkscape:connector-curvature="0"
   style="fill:url(#grad0-7);stroke:none;stroke-width:0.75;stroke-linecap:butt" />
					</g>
					<g
   id="shape21278-8"
   transform="translate(0.251422)">
						<title
   id="title33">Sheet.21278</title>
						<path
   d="m 32.93,46.76 c -0.9,-0.86 -2.31,-0.86 -3.21,0 l -7.67,7.35 c -1.17,1.12 -1.83,2.67 -1.83,4.29 v 3.3 c 0,9.1 -5.08,17.42 -13.12,21.49 L 2.21,85.66 C 0,86.78 0.78,90.14 3.25,90.14 h 12.88 c 14.52,0 26.29,-11.91 26.29,-26.59 V 58.4 c 0,-1.62 -0.66,-3.17 -1.82,-4.29 z"
   class="st2"
   id="path35"
   inkscape:connector-curvature="0"
   style="fill:#000000;fill-opacity:0.31999996;stroke:none;stroke-width:0.75;stroke-linecap:butt" />
					</g>
					<g
   id="shape21279-10"
   transform="translate(0.251422,-1.18205)">
						<title
   id="title38">Sheet.21279</title>
						<path
   d="m 32.93,46.76 c -0.9,-0.86 -2.31,-0.86 -3.21,0 l -7.67,7.35 c -1.17,1.12 -1.83,2.67 -1.83,4.29 v 3.3 c 0,9.1 -5.08,17.42 -13.12,21.49 L 2.21,85.66 C 0,86.78 0.78,90.14 3.25,90.14 h 12.88 c 14.52,0 26.29,-11.91 26.29,-26.59 V 58.4 c 0,-1.62 -0.66,-3.17 -1.82,-4.29 z"
   class="st3"
   id="path40"
   inkscape:connector-curvature="0"
   style="fill:#000000;fill-opacity:0.23999999;stroke:none;stroke-width:0.75;stroke-linecap:butt" />
					</g>
					<g
   id="shape21280-12"
   transform="translate(0.251422,-1.40664)">
						<title
   id="title43">Sheet.21280</title>
						<path
   d="m 32.93,46.76 c -0.9,-0.86 -2.31,-0.86 -3.21,0 l -7.67,7.35 c -1.17,1.12 -1.83,2.67 -1.83,4.29 v 1.01 2.29 c 0,9.1 -5.08,17.42 -13.12,21.49 L 2.21,85.66 C 0,86.78 0.78,90.14 3.25,90.14 h 12.88 c 14.52,0 26.29,-11.91 26.29,-26.59 V 60 58.4 c 0,-1.62 -0.66,-3.17 -1.82,-4.29 z"
   class="st4"
   id="path45"
   inkscape:connector-curvature="0"
   style="fill:url(#grad0-15);stroke:none;stroke-width:0.75;stroke-linecap:butt" />
					</g>
					<g
   id="shape21281-16"
   transform="translate(0,-0.223526)">
						<title
   id="title48">Sheet.21281</title>
						<path
   d="m 21.54,52.22 c -0.91,-0.93 -2.39,-0.93 -3.3,0 l -6.57,6.64 c -1.09,1.11 -1.71,2.61 -1.71,4.18 v 4.82 c 0,6.66 -2.78,13.02 -7.65,17.5 L 1.58,86.03 C 0,87.48 1.02,90.14 3.15,90.14 h 0.38 c 14.33,0 25.97,-11.59 26.28,-26 h 0.01 v -1.1 c 0,-1.57 -0.61,-3.07 -1.71,-4.18 z"
   class="st2"
   id="path50"
   inkscape:connector-curvature="0"
   style="fill:#000000;fill-opacity:0.31999996;stroke:none;stroke-width:0.75;stroke-linecap:butt" />
					</g>
					<g
   id="shape21282-18"
   transform="translate(0,-1.18099)">
						<title
   id="title53">Sheet.21282</title>
						<path
   d="m 21.54,52.22 c -0.91,-0.93 -2.39,-0.93 -3.3,0 l -6.57,6.64 c -1.09,1.11 -1.71,2.61 -1.71,4.18 v 4.82 c 0,6.66 -2.78,13.02 -7.65,17.5 L 1.58,86.03 C 0,87.48 1.02,90.14 3.15,90.14 h 0.38 c 14.33,0 25.97,-11.59 26.28,-26 h 0.01 v -1.1 c 0,-1.57 -0.61,-3.07 -1.71,-4.18 z"
   class="st3"
   id="path55"
   inkscape:connector-curvature="0"
   style="fill:#000000;fill-opacity:0.23999999;stroke:none;stroke-width:0.75;stroke-linecap:butt" />
					</g>
					<g
   id="shape21283-20"
   transform="translate(0,-1.40741)">
						<title
   id="title58">Sheet.21283</title>
						<path
   d="m 21.54,52.22 c -0.91,-0.93 -2.39,-0.93 -3.3,0 l -6.57,6.64 c -1.09,1.11 -1.71,2.61 -1.71,4.18 v 1.1 0 1.21 2.51 c 0,6.66 -2.78,13.02 -7.65,17.5 L 1.58,86.03 C 0,87.48 1.02,90.14 3.15,90.14 h 0.38 c 14.33,0 25.97,-11.59 26.28,-26 h 0.01 v -0.59 -0.51 c 0,-1.57 -0.61,-3.07 -1.71,-4.18 z"
   class="st5"
   id="path60"
   inkscape:connector-curvature="0"
   style="fill:url(#grad0-23);stroke:none;stroke-width:0.75;stroke-linecap:butt" />
					</g>
				</g>
			</g>
		</g>
	</g>
</svg>

<?xml version="1.0" encoding="UTF-8" standalone="no"?>
<!DOCTYPE svg PUBLIC "-//W3C//DTD SVG 1.1//EN" "http://www.w3.org/Graphics/SVG/1.1/DTD/svg11.dtd">
<!-- Generated by Microsoft Visio, SVG Export Application Product Insights.svg Page-1 -->
<svg xmlns="http://www.w3.org/2000/svg" xmlns:xlink="http://www.w3.org/1999/xlink" xmlns:ev="http://www.w3.org/2001/xml-events"
		width="0.944882in" height="1.25197in" viewBox="0 0 68.0315 90.1417" xml:space="preserve" color-interpolation-filters="sRGB"
		class="st6">
	<style type="text/css">
	<![CDATA[
		.st1 {fill:url(#grad0-7);stroke:none;stroke-linecap:butt;stroke-width:0.75}
		.st2 {fill:#000000;fill-opacity:0.32;stroke:none;stroke-linecap:butt;stroke-width:0.75}
		.st3 {fill:#000000;fill-opacity:0.24;stroke:none;stroke-linecap:butt;stroke-width:0.75}
		.st4 {fill:url(#grad0-15);stroke:none;stroke-linecap:butt;stroke-width:0.75}
		.st5 {fill:url(#grad0-23);stroke:none;stroke-linecap:butt;stroke-width:0.75}
		.st6 {fill:none;fill-rule:evenodd;font-size:12px;overflow:visible;stroke-linecap:square;stroke-miterlimit:3}
	]]>
	</style>

	<defs id="Patterns_And_Gradients">
		<linearGradient id="grad0-7" x1="0" y1="0" x2="1" y2="0" gradientTransform="rotate(56.779528382428 0.5 0.5)">
			<stop offset="0" stop-color="#0078d4" stop-opacity="1"/>
			<stop offset="1" stop-color="#2064ae" stop-opacity="1"/>
		</linearGradient>
		<linearGradient id="grad0-15" x1="0" y1="0" x2="1" y2="0" gradientTransform="rotate(42.542597117827 0.5 0.5)">
			<stop offset="0" stop-color="#40c4f5" stop-opacity="1"/>
			<stop offset="1" stop-color="#0095e6" stop-opacity="1"/>
		</linearGradient>
		<linearGradient id="grad0-23" x1="0" y1="0" x2="1" y2="0" gradientTransform="rotate(56.135176154079 0.5 0.5)">
			<stop offset="0" stop-color="#a7f2ff" stop-opacity="1"/>
			<stop offset="1" stop-color="#7cecff" stop-opacity="1"/>
		</linearGradient>
	</defs>
	<g>
		<title>Page-1</title>
		<g id="group20799-1" transform="translate(5.66929,-34.0157)">
			<title>Application Product Insights.20799</title>
			<g id="group20800-2">
				<title>Sheet.20800</title>
				<g id="group20801-3">
					<title>Sheet.20801</title>
					<g id="shape20802-4" transform="translate(11.9867,-1.40699)">
						<title>Sheet.20802</title>
						<path d="M34.01 41.34 C33.12 40.53 31.76 40.53 30.87 41.34 L22.09 49.37 C20.87 50.49 20.17 52.09 20.17 53.76
									 L20.17 55.86 L20.17 55.86 L20.17 57.93 L20.17 59.69 C20.17 69.05 15.31 77.71 7.38 82.52 L2.04
									 85.75 C0 86.98 0.86 90.14 3.23 90.14 L18.42 90.14 C32.94 90.14 44.71 78.23 44.71 63.55 L44.71
									 54.69 L44.71 53.76 C44.71 52.09 44.01 50.49 42.78 49.37 L34.01 41.34 Z" class="st1"/>
					</g>
					<g id="shape20803-8" transform="translate(0.251422,2.70006E-13)">
						<title>Sheet.20803</title>
						<path d="M32.93 46.76 C32.03 45.9 30.62 45.9 29.72 46.76 L22.05 54.11 C20.88 55.23 20.22 56.78 20.22 58.4
									 L20.22 61.7 C20.22 70.8 15.14 79.12 7.1 83.19 L2.21 85.66 C0 86.78 0.78 90.14 3.25 90.14 L16.13
									 90.14 C30.65 90.14 42.42 78.23 42.42 63.55 L42.42 58.4 C42.42 56.78 41.76 55.23 40.6 54.11 L32.93
									 46.76 Z" class="st2"/>
					</g>
					<g id="shape20804-10" transform="translate(0.251422,-1.18205)">
						<title>Sheet.20804</title>
						<path d="M32.93 46.76 C32.03 45.9 30.62 45.9 29.72 46.76 L22.05 54.11 C20.88 55.23 20.22 56.78 20.22 58.4
									 L20.22 61.7 C20.22 70.8 15.14 79.12 7.1 83.19 L2.21 85.66 C0 86.78 0.78 90.14 3.25 90.14 L16.13
									 90.14 C30.65 90.14 42.42 78.23 42.42 63.55 L42.42 58.4 C42.42 56.78 41.76 55.23 40.6 54.11 L32.93
									 46.76 Z" class="st3"/>
					</g>
					<g id="shape20805-12" transform="translate(0.251422,-1.40664)">
						<title>Sheet.20805</title>
						<path d="M32.93 46.76 C32.03 45.9 30.62 45.9 29.72 46.76 L22.05 54.11 C20.88 55.23 20.22 56.78 20.22 58.4
									 L20.22 59.41 L20.22 61.7 C20.22 70.8 15.14 79.12 7.1 83.19 L2.21 85.66 C0 86.78 0.78 90.14 3.25
									 90.14 L16.13 90.14 C30.65 90.14 42.42 78.23 42.42 63.55 L42.42 60 L42.42 58.4 C42.42 56.78 41.76
									 55.23 40.6 54.11 L32.93 46.76 Z" class="st4"/>
					</g>
					<g id="shape20806-16" transform="translate(2.81775E-13,-0.223526)">
						<title>Sheet.20806</title>
						<path d="M21.54 52.22 C20.63 51.29 19.15 51.29 18.24 52.22 L11.67 58.86 C10.58 59.97 9.96 61.47 9.96 63.04
									 L9.96 67.86 C9.96 74.52 7.18 80.88 2.31 85.36 L1.58 86.03 C0 87.48 1.02 90.14 3.15 90.14 L3.53
									 90.14 C17.86 90.14 29.5 78.55 29.81 64.14 L29.82 64.14 L29.82 63.04 C29.82 61.47 29.21 59.97
									 28.11 58.86 L21.54 52.22 Z" class="st2"/>
					</g>
					<g id="shape20807-18" transform="translate(2.81775E-13,-1.18099)">
						<title>Sheet.20807</title>
						<path d="M21.54 52.22 C20.63 51.29 19.15 51.29 18.24 52.22 L11.67 58.86 C10.58 59.97 9.96 61.47 9.96 63.04
									 L9.96 67.86 C9.96 74.52 7.18 80.88 2.31 85.36 L1.58 86.03 C0 87.48 1.02 90.14 3.15 90.14 L3.53
									 90.14 C17.86 90.14 29.5 78.55 29.81 64.14 L29.82 64.14 L29.82 63.04 C29.82 61.47 29.21 59.97
									 28.11 58.86 L21.54 52.22 Z" class="st3"/>
					</g>
					<g id="shape20808-20" transform="translate(2.81775E-13,-1.40741)">
						<title>Sheet.20808</title>
						<path d="M21.54 52.22 C20.63 51.29 19.15 51.29 18.24 52.22 L11.67 58.86 C10.58 59.97 9.96 61.47 9.96 63.04
									 L9.96 64.14 L9.96 64.14 L9.96 65.35 L9.96 67.86 C9.96 74.52 7.18 80.88 2.31 85.36 L1.58 86.03
									 C0 87.48 1.02 90.14 3.15 90.14 L3.53 90.14 C17.86 90.14 29.5 78.55 29.81 64.14 L29.82 64.14
									 L29.82 63.55 L29.82 63.04 C29.82 61.47 29.21 59.97 28.11 58.86 L21.54 52.22 Z" class="st5"/>
					</g>
				</g>
			</g>
		</g>
	</g>
</svg>
